X:87
T: Der heimkehrende Soldat
N: Q1103D
O: Mitteleuropa, Deutschland
N: Melodievergleich zu Q0103A, anderes Lied.
N: Anhaengsel; fuenfte und sechste Zeile = Refrain.
R: ???
M: 6/8
L: 1/16
K: G
D2 | D2G2G2G2A2B2 | B3AA2A4d2 | B6z4
D2 | D2G2G2G2A2B2 | B3AA2A4d2 | B6z4
GB | d2d2d2d3ed2 | d2c2c2c4
c2 | B2B2B2d3cB2 | B2A2A2A4
d2 | B4B2A4A2 | G6
d6 | B3cB2A2G2A2 | G6z4

